icons/percent.svg

<svg xmlns="http://www.w3.org/2000/svg" width="24" height="24" viewBox="0 0 24 24">
  <path d="M15.4393398,15.4393398 C16.0251263,14.8535534 16.9748737,14.8535534 17.5606602,15.4393398 C18.1464466,16.0251263 18.1464466,16.9748737 17.5606602,17.5606602 C16.9748737,18.1464466 16.0251263,18.1464466 15.4393398,17.5606602 C14.8535534,16.9748737 14.8535534,16.0251263 15.4393398,15.4393398 Z M17.7071068,6.29289322 C18.0675907,6.65337718 18.0953203,7.22060824 17.7902954,7.61289944 L17.7071068,7.70710678 L7.70710678,17.7071068 C7.31658249,18.0976311 6.68341751,18.0976311 6.29289322,17.7071068 C5.93240926,17.3466228 5.90467972,16.7793918 6.20970461,16.3871006 L6.29289322,16.2928932 L16.2928932,6.29289322 C16.6834175,5.90236893 17.3165825,5.90236893 17.7071068,6.29289322 Z M6.43933983,6.43933983 C7.02512627,5.85355339 7.97487373,5.85355339 8.56066017,6.43933983 C9.14644661,7.02512627 9.14644661,7.97487373 8.56066017,8.56066017 C7.97487373,9.14644661 7.02512627,9.14644661 6.43933983,8.56066017 C5.85355339,7.97487373 5.85355339,7.02512627 6.43933983,6.43933983 Z"/>
</svg>

<svg xmlns="http://www.w3.org/2000/svg" viewBox="0 0 24 24">
  <path d="M15.44 15.44a1.5 1.5 0 1 1 2.12 2.12 1.5 1.5 0 0 1-2.12-2.12zm2.27-9.15a1 1 0 0 1 .08 1.32l-.08.1-10 10a1 1 0 0 1-1.5-1.32l.08-.1 10-10a1 1 0 0 1 1.42 0zm-11.27.15a1.5 1.5 0 1 1 2.12 2.12 1.5 1.5 0 0 1-2.12-2.12z"/>
</svg>
